X:1
T:Title
%%score { ( 1 3 4 ) | ( 2 5 ) }
L:1/8
M:4/4
K:A
V:1 treble nm="Grand Piano"
V:3 treble 
V:4 treble 
V:2 bass 
V:5 bass 
V:1
 z4 z2 z[Q:1/4=92] [CE] | [CE]>[CE] C[CE] [CA]2 [CE][CA] | [EB]>[EB] [EA][EB] [Ec]3 [Ec] | %3
 [Fd]>[Fd] [Fd][Fd] [Fd] [Ec]2 [Ec] | %4
[M:19/16] [^Dc]>[DB][DB]>[DF][EG]/-[EG]/-[EG]/-[EG]/-[EG]/-[EG]-<[EG][=DE] | %5
[M:4/4] [CE]>[CE] C[CE] [CA]2 [CA][CA] | A>A BB [Ec]3 [Ec]/[Ec]/ | %7
 [Fd]>[Fd] [Fd][Fd] [Fd] [Ec]2 [CA]/[CA]/ | %8
[M:17/16] B>ABc[CA]/-[CA]/-[CA]/-[CA]/-[CA]/-[CA]-<[CA] |[M:1/8] G/A/ | %10
[M:4/4] [GB]2 [Ac]<[Ac] [GB]3 [GB]/[EG]/ |[M:7/8] [^DA][DA][DA]<[DB] G3 |[M:1/8] E/F/ | %13
[M:9/8] z3 .c3 z3 | %14
[M:37/32] z/4 z/4 z/4 z/4 z/4 z/4 z/ c/4-c/4-c/4-c/4-c/4-c/4-c/-<c/ z/4 z/4 z/4 z/4 z/4 z/4 z/4 z/4 z/4 z/4 z/4 z/4 z/4 z/4 z/4 z/4 z/4 z/ |] %15
V:2
 z4 z2 z [A,,A,] | [A,,A,]>[A,,A,] [A,,A,][A,,A,] [A,,A,]2 [A,,A,][A,,A,] | %2
 [E,G,]>[E,G,] [C,A,][E,G,] [A,,A,]3 [A,,A,] | %3
 [D,A,]>[D,A,] [D,A,][D,A,] [A,,A,] [A,,A,]2 [A,,A,] | %4
[M:19/16] [B,,F,]>[B,,F,][B,,F,]>[B,,B,][E,B,]/-[E,B,]/-[E,B,]/-[E,B,]/-[E,B,]/-[E,B,]-<[E,B,][E,G,] | %5
[M:4/4] [A,,A,]>[A,,A,] [A,,A,][A,,A,] [A,,A,]2 [A,,A,][A,,A,] | %6
 [F,A,C]>[F,A,C] [E,G,E][E,G,E] [A,,A,]3 [A,,A,]/[A,,A,]/ | %7
 [D,A,]>[D,A,] [D,A,][D,A,] [A,,A,] [A,,A,]2 [A,,A,]/[A,,A,]/ | %8
[M:17/16] [E,G,D]>[E,A,C][E,G,D][E,G,E][A,,A,]/-[A,,A,]/-[A,,A,]/-[A,,A,]/-[A,,A,]/-[A,,A,]-<[A,,A,] | %9
[M:1/8] [E,B,E] |[M:4/4] [E,E]2 [A,E]<[A,E] [E,E]3 [E,E]/[E,B,]/ | %11
[M:7/8] [B,,B,][B,,B,][B,,B,]<[B,,B,] [E,B,E]3 |[M:1/8] [E,G,]/[E,A,E]/ | %13
[M:9/8] [E,B,E][E,CE][E,G,E] .[A,E][D,A,][D,A,]- [D,A,]2 [D,A,]/[D,A,D]/ | %14
[M:37/32] [E,A,C]/-<[E,A,C]/[E,A,C]/-<[E,A,C]/[B,E]/4-[B,E]/4-[B,E]/4-[B,E]/4-[B,E]/4-[B,E]/4-[B,E]/-<[B,E]/[A,,A,]/4-[A,,A,]/4-[A,,A,]/4-[A,,A,]/4-[A,,A,]/4-[A,,A,]/4-[A,,A,]/4-[A,,A,]/4-[A,,A,]/4-[A,,A,]/4-[A,,A,]/4-[A,,A,]/4-[A,,A,]/4-[A,,A,]/4-[A,,A,]/4-[A,,A,]/-<[A,,A,]/ |] %15
V:3
 x8 | x8 | x8 | x8 |[M:19/16] x19/2 |[M:4/4] x8 | x8 | x8 |[M:17/16] x17/2 |[M:1/8] x |[M:4/4] x8 | %11
[M:7/8] x7 |[M:1/8] x |[M:9/8] GAB z/ =G/[Fd][Fd]- [Fd]2 [Ec]/B/ | %14
[M:37/32] z/4 z/4 z/4 z/4 z/4 z/4 z/4 z/4 z/4 z/4 z/4 z/4 z/4 z/4 z/ B3/4 z/4 z/4 z/4 z/4 z/4 z/4 z/4 z/4 z/4 z/4 z/4 z/4 z/4 z/4 z/4 z/4 z/ |] %15
V:4
 x8 | x8 | x8 | x8 |[M:19/16] x19/2 |[M:4/4] x8 | x8 | x8 |[M:17/16] x17/2 |[M:1/8] x |[M:4/4] x8 | %11
[M:7/8] x7 |[M:1/8] x |[M:9/8] x9 | %14
[M:37/32] A/-<A/E/-<E/ z/4 z/4 z/4 z/4 z/4 z/4 z/4 z/4 z/ [CA]/4-[CA]/4-[CA]/4-[CA]/4-[CA]/4-[CA]/4-[CA]/4-[CA]/4-[CA]/4-[CA]/4-[CA]/4-[CA]/4-[CA]/4-[CA]/4-[CA]/4-[CA]/-<[CA]/ |] %15
V:5
 x8 | x8 | x8 | x8 |[M:19/16] x19/2 |[M:4/4] x8 | x8 | x8 |[M:17/16] x17/2 |[M:1/8] x |[M:4/4] x8 | %11
[M:7/8] x7 |[M:1/8] x |[M:9/8] x9 | %14
[M:37/32] z/4 z/4 z/4 z/4 z/4 z/4 z/ E,/4-E,/4-E,/4-E,/4-E,/-<E,/[E,G,D]3/4 z/4 z/4 z/4 z/4 z/4 z/4 z/4 z/4 z/4 z/4 z/4 z/4 z/4 z/4 z/4 z/4 z/ |] %15

